X:102
T:Carpathian Tune
M:4/4
L:1/8
F:http://blackrosetheband.googlepages.com/ABCTUNES.ABC May 2009
K:Am
"Am"A2 A2 e2 e2|^d2 d2 e2 =d2|cB A2 B2 c2|"E"B4 B4|
"Am"A2 A2 e2 e|^d2 d2 e2 =d2|cB A2 "E"B2 c2|"Am"A4 A4:|
"Dm"d2 A2 d2 A2|"Am"cB A2 cB A2|"Dm"d2 A2 d2 A2|"Am"cB A2 A4|
"Dm"d2 A2 d2 A2|"Am"cB A2 A2 B2|cB A2 "E"B2 c2|"Am"A4 A4:|
